X:4
T:Flatworld
R:waltz
C:Andy Cutting
D:Blowzabella, Vanilla
M:3/4
K:Am
e de | ce Be Ae | F2 AB cA | f3 edc | B3 ede |
ce Be Ae | F2 fe dc | B3 dcB |1 A3 :|2 A6 |:
AB cA ag | f3 edc | Bc dG gf | e3 dcB |
AB cF fe | d3 cBA |1 B2 Bd ^cd | B3 dcB :|2
 B2 Bd cB | A6 |]
